X:1
T:Bold General Wolfe
B:Marrowbones, ed. Frank Purslow. EFDS Publications, 1965.
S:Sam Gregory, Beaminster, Dorset, July 1906 and William Bartlett, Wimborne Union, Dorset 1905
Z:Hammond D.529/D.174
F:http://www.folkinfo.org/songs
M:3/2
L:1/8    
K:C
G2 |c2 A2 c4 d2 e2 |fg a2 g6 e2 |f2 d2 f3 e d2 c2 |
w:On Mon-day eve-ning as we _ set sail The wind did blow_  a most 
B2 cA G4 e3 e |f2 g2 a2 f2 e2 d2 |fg a2 g6 g2 |gf e2 de g4 g2 |
w:pleas-ant_ gale For to fight the Fre-nch it was our_ in-tent, Through smoke_ and fire__ Through
fedc d3 B G2 B2 |cBcd f4 e2 e2 |dc d2 d2 c4 z2 |]
w:sm-o-ke and fi-re_ And it_ was a dark and a gl-o-o-my night
